X:396
T:Salty Dog Blues
C:David Grisman
N:Tabkledited by Mike Stangeland From a Frets Magazine / June 1988 column
R:bluegrass
L:1/8
Q:1/4=230
M:4/4
K:G
z8 | "G"B,D EG ED GA | "E7"Bd BA [e4e4] | "A"ef (3gfe ^cf ec | B^c BA GB AG | 
"D"F2 FD EF ED | FB AB cB AF | "G"GF GA Bc de | b2 Bc de a2 | Bc de ge de | "E7"g^g =g^g =gd BA | 
"A"z2 ^cA Bc2A | d2 ^cA Bc2B | (3"D"cBA FB AF EF | DE DC B,G, A,B, | "G"G,A, B,D ED EF | 
GF GA Bc d2 | g8 | 


